X: 1
T: Farewell, The
M: 4/4
L: 1/8
R: strathspey
K: Emaj
|: G<A | B3A G3F | E>GB<e g2 e2 | f<Bf<g a2g<a |
f2 F<G F2 G<A |B3A G3F | (3EGB (3egb a2g<f |
[1 f>ed<c B>de<f | g2e2 e2 :|2 f>ed<c c>BA<G | B2E2 E2 ||
|: g<a | b3e g3b | e>de<f g2e2 | a3f g<ba<g | f2 F<G F2 g<a |
b3a g>fe<d | f>ed<c c>BA<G | A<cB>e d>fB<a | g2e2 e2 g<a |
b3e g3d | e2 E2 c>BA<G | B,>EG>B c>de<f | g2 f2 f2 G<A |
B3 A G3 F | (3EGB (3egb a2 g<f | f>ed<c c>BA<G | B2E2 E2 ||
